mimes/scalable/application-x-sln.svg

<?xml version="1.0" encoding="UTF-8" standalone="no"?>
<svg
   xmlns:dc="http://purl.org/dc/elements/1.1/"
   xmlns:cc="http://creativecommons.org/ns#"
   xmlns:rdf="http://www.w3.org/1999/02/22-rdf-syntax-ns#"
   xmlns:svg="http://www.w3.org/2000/svg"
   xmlns="http://www.w3.org/2000/svg"
   xmlns:sodipodi="http://sodipodi.sourceforge.net/DTD/sodipodi-0.dtd"
   xmlns:inkscape="http://www.inkscape.org/namespaces/inkscape"
   width="48"
   height="48"
   viewBox="0 0 12.7 12.7"
   version="1.1"
   id="svg4"
   sodipodi:docname="application-x-sln.svg"
   inkscape:version="0.92.3 (2405546, 2018-03-11)">
  <metadata
     id="metadata10">
    <rdf:RDF>
      <cc:Work
         rdf:about="">
        <dc:format>image/svg+xml</dc:format>
        <dc:type
           rdf:resource="http://purl.org/dc/dcmitype/StillImage" />
        <dc:title></dc:title>
      </cc:Work>
    </rdf:RDF>
  </metadata>
  <defs
     id="defs8" />
  <sodipodi:namedview
     pagecolor="#ffffff"
     bordercolor="#666666"
     borderopacity="1"
     objecttolerance="10"
     gridtolerance="10"
     guidetolerance="10"
     inkscape:pageopacity="0"
     inkscape:pageshadow="2"
     inkscape:window-width="1366"
     inkscape:window-height="715"
     id="namedview6"
     showgrid="false"
     showguides="true"
     inkscape:guide-bbox="true"
     inkscape:snap-global="true"
     inkscape:zoom="10.979167"
     inkscape:cx="23.908918"
     inkscape:cy="24"
     inkscape:window-x="0"
     inkscape:window-y="27"
     inkscape:window-maximized="1"
     inkscape:current-layer="svg4"
     inkscape:measure-start="0,0"
     inkscape:measure-end="0,0" />
  <path
     inkscape:connector-curvature="0"
     style="opacity:1;fill:#0088aa;fill-opacity:1;fill-rule:nonzero;stroke:none;stroke-width:0.50711805;stroke-linecap:round;stroke-linejoin:bevel;stroke-miterlimit:4;stroke-dasharray:none;stroke-opacity:1"
     d="m 7.3492433,0.0566603 c -0.040983,0 -0.078161,0.0127642 -0.1049033,0.0330729 C 7.218411,0.1094229 7.202933,0.1367362 7.201965,0.1667311 7.3445127,0.2235372 7.4736634,0.30302596 7.5802366,0.40909358 7.76971,0.59766786 7.8931916,0.85276088 7.9104491,1.1392812 h 0.00672 v 0.068213 0.1441772 0.1369425 0.1927531 c 0,0.2812905 0.2266883,0.5079794 0.5079795,0.5079794 h 0.1183391 l -5.291e-4,0.00568 h 1.6924064 c 0.329951,0 0.613684,0.1491999 0.819072,0.3731038 V 1.141865 0.56463964 c 0,-0.14064565 -0.05654,-0.26789289 -0.148312,-0.35966798 C 10.814345,0.11319656 10.687101,0.0566603 10.546455,0.0566603 H 9.0462851 7.7864139 Z"
     id="path965" />
  <path
     style="opacity:1;fill:#333333;fill-opacity:1;fill-rule:nonzero;stroke:none;stroke-width:0.50711805;stroke-linecap:round;stroke-linejoin:bevel;stroke-miterlimit:4;stroke-dasharray:none;stroke-opacity:1"
     d="m 2.9460732,0.55206094 c -0.6285519,0 -1.134298,0.50626306 -1.134298,1.13481446 v 9.9012056 c 0,0.628551 0.5057461,1.134814 1.134298,1.134814 h 4.2855261 2.522327 c 0.6285527,0 1.1342987,-0.506263 1.1342987,-1.134814 V 3.6728008 h -0.01292 C 10.810197,3.1070068 10.337709,2.6687276 9.7539263,2.6687276 h -1.692403 v 0 l -0.11781,-0.00568 C 7.6627483,2.6495013 7.4357343,2.4363589 7.4357343,2.1550682 V 1.9623107 1.8253682 1.6811909 1.612978 h -0.0067 C 7.3941823,1.0346118 6.9321933,0.5804805 6.3510473,0.55464473 l -5.29e-4,-0.002585 h -0.02015 z"
     id="path833"
     inkscape:connector-curvature="0" />
  <path
     style="opacity:1;fill:#cccccc;fill-opacity:1;fill-rule:nonzero;stroke:none;stroke-width:0.50711805;stroke-linecap:round;stroke-linejoin:bevel;stroke-miterlimit:4;stroke-dasharray:none;stroke-opacity:1"
     d="m 6.4269983,1.0791605 c 0.263277,0.019482 0.470254,0.2359637 0.470255,0.504362 v 0.2563151 0.125057 0.092501 c 0,0.5757933 0.427721,1.0388807 0.982369,1.1136271 v 0 l 1.962134,0.026872 c 0.2812647,0.00385 0.5079787,0.2266886 0.5079797,0.5079793 V 5.7894678 11.68575 c 0,0.281291 -0.226688,0.50798 -0.5079797,0.50798 H 7.2315993 2.8582236 c -0.281291,0 -0.50798,-0.226689 -0.50798,-0.50798 V 1.5892069 c 0,-0.2812907 0.226689,-0.5079794 0.50798,-0.5079794 h 3.5692907 z"
     id="path901-5"
     inkscape:connector-curvature="0" />
  <path
     inkscape:connector-curvature="0"
     style="fill:#0088aa;fill-rule:evenodd;stroke-width:0.26458332;fill-opacity:1"
     d="M 4.725957,5.2785914 C 3.8359526,5.2786928 2.7624051,5.9360037 2.3330327,7.0222278 V 9.5682992 C 2.5308401,10.345871 2.8475932,10.945083 3.113663,11.589142 L 4.3393072,11.078457 C 4.0578759,10.50196 3.6960892,9.9266072 3.5659841,9.6412541 3.2017459,8.842251 3.068676,8.4847364 3.099072,7.875743 3.1284759,7.2869669 3.3247353,6.9242463 3.6827121,6.5771439 4.0406935,6.2300649 4.5358771,6.0575642 5.1272212,6.1394138 6.379596,6.3129184 6.7825878,7.2607732 6.8124935,7.7225258 6.8370928,8.1023121 6.5636061,9.0376536 5.6014404,8.9919429 4.9344332,8.9602046 4.5595029,8.5904687 4.5144225,7.963289 4.481204,7.5010461 4.9284801,7.0344609 5.6525206,7.2702048 5.7690619,7.3081274 5.7769409,7.0991305 5.645225,6.9929758 5.3061069,6.7196921 3.9627075,6.8241661 3.9672599,7.8976178 3.9714692,8.8923973 4.767197,9.556533 5.5358042,9.560992 7.1454835,9.5704657 7.4615829,8.2997926 7.4034524,7.423422 7.3390442,6.452315 6.1143316,5.2783813 4.7259453,5.2785448 Z"
     id="path3605" />
  <path
     inkscape:connector-curvature="0"
     style="opacity:0.604;fill:#0088aa;fill-rule:evenodd;stroke-width:0.26458332;fill-opacity:1"
     d="M 9.5621567,5.3441926 8.3365126,5.8548777 C 8.6179438,6.4314441 8.9870377,7.006633 9.1171428,7.2920796 9.4813809,8.0910829 9.6144739,8.448574 9.5840549,9.0575908 9.5546534,9.6462735 9.3511031,10.001756 8.993131,10.348884 8.6351495,10.695962 8.1472498,10.87577 7.555929,10.793897 6.3035541,10.620522 5.9005624,9.6725373 5.8706567,9.2107846 5.8460598,8.8310684 6.1122603,7.8956568 7.0744026,7.9413675 7.7414098,7.9731058 8.1163401,8.3428418 8.1614206,8.9700214 8.1946394,9.432241 7.747363,9.8988732 7.0233224,9.6631056 6.9067742,9.6252156 6.8988973,9.8341826 7.0306195,9.940335 7.3697361,10.213642 8.7131121,10.109109 8.7085831,9.0356926 8.7043739,8.0409598 7.9086461,7.3694937 7.1400388,7.3650346 5.5303595,7.355498 5.2215672,8.6334479 5.2796745,9.5099119 c 0.064405,0.9710141 1.2818135,2.1451351 2.6702699,2.1448791 0.889981,-5e-5 1.9629217,-0.664815 2.3929256,-1.7509219 V 7.3650346 C 10.143597,6.5877428 9.8283083,5.9882978 9.5622384,5.3441926 Z"
     id="path3609" />
</svg>

<?xml version="1.0" encoding="UTF-8" standalone="no"?><svg xmlns:dc="http://purl.org/dc/elements/1.1/" xmlns:cc="http://creativecommons.org/ns#" xmlns:rdf="http://www.w3.org/1999/02/22-rdf-syntax-ns#" xmlns="http://www.w3.org/2000/svg" width="48" height="48" viewBox="0 0 12.7 12.7"><metadata><rdf:RDF><cc:Work><dc:format>image/svg+xml</dc:format><dc:type rdf:resource="http://purl.org/dc/dcmitype/StillImage"/><dc:title/></cc:Work></rdf:RDF></metadata><path d="M7.35.06a.17.17 0 0 0-.1.03.1.1 0 0 0-.05.08 1.12 1.12 0 0 1 .71.97v.55c0 .27.23.5.52.5h1.81c.33 0 .6.15.81.38V.56a.5.5 0 0 0-.5-.5H7.79z" fill="#08a"/><path d="M2.95.55c-.63 0-1.14.5-1.14 1.14v9.9c0 .63.5 1.13 1.14 1.13H9.75c.63 0 1.14-.5 1.14-1.13V3.67h-.01c-.07-.56-.54-1-1.13-1H7.94a.52.52 0 0 1-.5-.51V1.6h-.01A1.12 1.12 0 0 0 6.35.55h-.02z" fill="#333"/><path d="M6.43 1.08a.5.5 0 0 1 .47.5v.48c0 .57.42 1.04.98 1.11l1.96.03c.28 0 .51.22.51.5v7.99a.5.5 0 0 1-.5.5H2.85a.5.5 0 0 1-.51-.5V1.59c0-.28.23-.5.5-.5h3.58z" fill="#ccc"/><path d="M4.73 5.28c-.9 0-1.97.66-2.4 1.74v2.55c.2.78.52 1.38.78 2.02l1.23-.51c-.28-.58-.64-1.15-.77-1.44-.37-.8-.5-1.16-.47-1.76.03-.6.22-.96.58-1.3.36-.35.86-.52 1.45-.44 1.25.17 1.65 1.12 1.68 1.58.03.38-.25 1.32-1.2 1.27-.68-.03-1.05-.4-1.1-1.03-.03-.46.42-.93 1.14-.69.12.04.13-.17 0-.28-.34-.27-1.69-.17-1.68.9 0 1 .8 1.67 1.57 1.67 1.6.01 1.92-1.26 1.86-2.14-.06-.97-1.29-2.14-2.67-2.14z" fill="#08a" fill-rule="evenodd"/><path d="M9.56 5.34l-1.22.51c.28.58.65 1.16.78 1.44.36.8.5 1.16.46 1.77-.03.59-.23.94-.59 1.29-.35.35-.84.53-1.43.44-1.26-.17-1.66-1.12-1.69-1.58-.02-.38.24-1.31 1.2-1.27.67.03 1.05.4 1.1 1.03.02.46-.42.93-1.15.7-.11-.04-.12.16.01.27.34.27 1.68.17 1.68-.9 0-1-.8-1.67-1.57-1.67-1.61-.01-1.92 1.26-1.86 2.14.06.97 1.28 2.15 2.67 2.14.89 0 1.96-.66 2.4-1.75V7.37c-.2-.78-.52-1.38-.79-2.03z" opacity=".6" fill="#08a" fill-rule="evenodd"/></svg>
